!!!COM: Music21
!!!OTL: Valse
!!!OMV: pezas_valses_valse-13_valse-partitura.musicxml
**kern
*I"Bagpipes
*I'Bag
*clefG^2
*k[]
*M3/4
=1
!LO:TX:a:t=Prestissimo
*MM225
!LO:TX:a:t=[quarter]=225
4cc
4ddM
4cc
=
4ff
4ff
4ff
=
4cc
4ddM
4cc
=
4ff
4ff
4ff
=
4cc
4ddM
4cc
=
[2.aa
=
2.aa]
=
4ff
4gg
4aaM
=
2gg
4ffM
=
2ee
4ggM
=
2.ff
=
4cc
4ddM
4cc
!!linebreak:original
=
4ff
4ff
4ff
!!linebreak:original
=
4cc
4ddM
4cc
=
4ff
4ff
4ff
=
4cc
4ddM
4cc
=
2.aa
=
4ff
4gg
4aaM
=
2gg
4ccc
=
2gg
8aaL
8ggJ
=
2.ff
=||
4gg
4aaM
4gg
=
2ccc
4gg
=
8aaL
8bbJ
8aaL
8ggJ
8ffL
8aaJ
!!linebreak:original
=
2.gg
!!linebreak:original
=
4gg
4aaM
4gg
=
2ccc
4gg
=
8aaL
8bbJ
8aaL
8ggJ
8ffL
8aaJ
=
2gg
4cc
=||
4.eet
8dd
8eeL
8ddJ
=
4.eet
8dd
8eeL
8ddJ
=
4.eet
8dd
8eeL
8ddJ
=
2eet
4cc
=
4aa
8ggL
8ffJ
8eemL
8ddJ
!!linebreak:original
=
4ee
4cc
4cc
=
4.eet
8dd
8eeL
8ddJ
=
4.eet
8dd
8eeL
8ddJ
=
4.eet
8dd
8eeL
8ddJ
=
2eet
4cc
=
4aa
8ggL
8ffJ
8eemL
8ddJ
=
2cc
4cc
=||
4.eet
8dd
8eeL
8ddJ
!!linebreak:original
=
4.eet
8dd
8eeL
8ddJ
=
4.eet
8dd
8eeL
8ddJ
=
2eet
4cc
=
4aa
8ggL
8ffJ
8eemL
8ddJ
!!linebreak:original
=
4ee
4cc
4cc
=
4.eet
8dd
8eeL
8ddJ
=
4.eet
8dd
8eeL
8ddJ
=
4.eet
8dd
8eeL
8ddJ
=
2eet
4cc
=
4aa
8ggL
8ffJ
8eemL
8ddJ
=
2.cc
=
2.cc
=||
*-
